X: 3095
Q:"Strathspey."
M: C
L: 1/16
K: A
uE2 |\
vCuE3vA3uE FD3B3uA | vG3vB eee2 (cA3) A3uc |\
df3 B3d ce3 A3c | FB3 B3c dcBA GFED |\
vC3vE AAA2 (FD3) D3F |
df3 B3d ce3 A3c | F3B AGFE A6 |]\
uf2 |\
eA3 c3A aA3 c3A | vB3vb bbb2 (ge3) e3ug |
a3ec3e A3ec3e | dF3 B3A GE3E3d |\
c3e aaa2 (fd3) ud3uc | B3b bbb2 (ge3)e3g |\
a3e dcBA ce3a3e | fb3 e3g a6 |]


